X:561
T:Miss MacLeod of Colbeck
R:Strathspey
B:The Athole Collection
M:C
L:1/8
K:F
f|c<F c>A c<F c>A|d<G d>c d<G G>f|c<F c>A f>gf>c|d/c/B/A/ G>B A<FF:|
c|~f>ga>f cf/g/ a>f|b>ag>f e<cg<c|~f>ga>f c>fa>f|b/a/g/f/ c>f a<f ~f>c|
~f>ga>f cf/g/ a>f|b>ag>f e<c g>c|d<fc<f B<fA<c|d/c/B/A/ G>B A<FF||

